X: 31776
T: Patrick's
R: jig
M: 6/8
K: Gmajor
"G"gfg dBG|"G"gfg dBG|"C"cBc "D"AFD|"C"cBc "D"AFD|
"G"gfg dBG|"G"gfg dBG|"C"edc cde|"D"fef "G"g3:|
|:"C"edc edc|"G"dcB dcB|"C"edc ede|"D"fga "G"bgg:|
|:"G"bab "C"c'2b|"D"aga "G"b2a|"G"gfg "D"a2g|"D"fef "G"g3:|

